mame/_inc/art.svg

<svg xmlns="http://www.w3.org/2000/svg"><g fill="#1e1e1e"><path d="m155.177 123.269c-27.133 0-49.134 22.002-49.134 49.132 0 27.132 22.001 49.135 49.134 49.135 27.132 0 49.135-22.002 49.135-49.135 0-27.132-22.002-49.135-49.135-49.135zm0 1.018c26.581 0 48.116 21.534 48.116 48.116s-21.534 48.117-48.116 48.117c-26.584 0-48.118-21.532-48.118-48.117 0-26.581 21.534-48.115 48.116-48.115z" transform="matrix(.965926 -.258819 .258819 .965926 -39.333101 46.037288)"/><path d="m155.179 151.675c-11.442 0-20.731 9.288-20.731 20.73 0 11.441 9.289 20.73 20.731 20.73 11.441 0 20.73-9.288 20.73-20.73s-9.288-20.73-20.73-20.73zm0 1.019c10.89 0 19.71 8.82 19.71 19.711 0 10.89-8.82 19.711-19.71 19.711-10.891 0-19.712-8.821-19.712-19.711s8.821-19.711 19.712-19.711z" transform="matrix(.965926 -.258819 .258819 .965926 -39.334104 46.037688)"/><path d="m147.954 140.699 2.499 9.49h-4.999z" transform="matrix(.965926 -.258819 .258819 .965926 -32.602292 43.249077)"/><path d="m127.837 154.824 8.486 4.952-3.518 3.535z" transform="matrix(.965926 -.258819 .258819 .965926 -36.66917 39.604896)"/><path d="m132.963 177.131v5l-9.504-2.5z" transform="matrix(.965926 -.258819 .258819 .965926 -42.123224 39.304209)"/><path d="m142.567 191.26 3.519 3.534-8.486 4.951z" transform="matrix(.965926 -.258819 .258819 .965926 -45.766599 43.37327)"/><path d="m159.901 194.617h5l-2.5 9.49z" transform="matrix(.965926 -.258819 .258819 .965926 -46.064983 48.825541)"/><path d="m177.565 181.5 4.936 8.47-8.47-4.937z" transform="matrix(.965926 -.258819 .258819 .965926 -41.997472 52.467377)"/><path d="m177.395 162.677 9.52 2.5-9.52 2.499z" transform="matrix(.965926 -.258819 .258819 .965926 -36.544031 52.773412)"/><path d="m172.743 145.08-4.937 8.471-3.535-3.535z" transform="matrix(.965926 -.258819 .258819 .965926 -32.903946 48.700598)"/><path d="m251.989 105.086c-10.031 0-18.166 8.135-18.166 18.166s8.135 18.183 18.166 18.183c10.03 0 18.183-8.152 18.183-18.183s-8.151-18.166-18.183-18.166zm0 1.019c9.48 0 17.163 7.666 17.163 17.147 0 9.48-7.683 17.165-17.163 17.165s-17.148-7.685-17.148-17.165c0-9.481 7.668-17.147 17.148-17.147z" transform="matrix(.965926 -.258819 .258819 .965926 -23.315553 69.421727)"/><path d="m251.987 110.899c-6.818 0-12.355 5.538-12.355 12.356s5.537 12.355 12.355 12.355c6.819 0 12.356-5.537 12.356-12.355s-5.537-12.356-12.356-12.356zm0 1.02c6.267 0 11.336 5.068 11.336 11.335s-5.07 11.336-11.336 11.336c-6.267 0-11.336-5.069-11.336-11.336s5.069-11.335 11.336-11.335z" transform="matrix(.965926 -.258819 .258819 .965926 -23.314342 69.418933)"/><path d="m296.525 93.152c-10.032 0-18.167 8.136-18.167 18.167s8.136 18.166 18.167 18.166c10.03 0 18.183-8.135 18.183-18.166 0-10.032-8.151-18.167-18.183-18.167zm0 1.019c9.48 0 17.164 7.668 17.164 17.148s-7.684 17.147-17.164 17.147-17.148-7.668-17.148-17.147c.001-9.481 7.668-17.148 17.148-17.148z" transform="matrix(.965926 -.258819 .258819 .965926 -18.707226 80.54145)"/><path d="m296.526 98.965c-6.819 0-12.356 5.537-12.356 12.356 0 6.818 5.537 12.355 12.356 12.355 6.817 0 12.354-5.537 12.354-12.355 0-6.819-5.537-12.356-12.354-12.356zm0 1.019c6.267 0 11.335 5.069 11.335 11.336s-5.07 11.336-11.335 11.336c-6.268 0-11.337-5.069-11.337-11.336s5.07-11.336 11.337-11.336z" transform="matrix(.965926 -.258819 .258819 .965926 -18.708016 80.539449)"/><path d="m341.063 81.218c-10.03 0-18.166 8.136-18.166 18.167 0 10.03 8.135 18.166 18.166 18.166 10.032 0 18.184-8.136 18.184-18.166 0-10.031-8.152-18.167-18.184-18.167zm0 1.019c9.481 0 17.165 7.668 17.165 17.148s-7.684 17.147-17.165 17.147c-9.48 0-17.148-7.668-17.148-17.147 0-9.481 7.669-17.148 17.148-17.148z" transform="matrix(.965926 -.258819 .258819 .965926 -14.100855 91.662353)"/><path d="m341.064 87.031c-6.819 0-12.356 5.537-12.356 12.356 0 6.818 5.537 12.355 12.356 12.355 6.818 0 12.355-5.537 12.355-12.355 0-6.819-5.537-12.356-12.355-12.356zm0 1.019c6.267 0 11.336 5.069 11.336 11.336s-5.069 11.337-11.336 11.337-11.337-5.07-11.337-11.337 5.07-11.336 11.337-11.336z" transform="matrix(.965926 -.258819 .258819 .965926 -14.101661 91.660214)"/><path d="m372.748 26.347c-10.032 0-18.167 8.136-18.167 18.166 0 10.031 8.136 18.183 18.167 18.183 10.032 0 18.167-8.152 18.167-18.183-.005-10.03-8.142-18.166-18.169-18.166zm0 1.018c9.48 0 17.148 7.669 17.148 17.148 0 9.48-7.668 17.164-17.148 17.164s-17.148-7.684-17.148-17.164 7.668-17.148 17.15-17.148z" transform="matrix(.965926 -.258819 .258819 .965926 1.17806 97.991259)"/><path d="m372.747 32.157c-6.817 0-12.354 5.538-12.354 12.356s5.537 12.371 12.354 12.371c6.819 0 12.356-5.553 12.356-12.371s-5.537-12.356-12.356-12.356zm0 1.019c6.269 0 11.337 5.069 11.337 11.337 0 6.267-5.069 11.352-11.337 11.352-6.267 0-11.335-5.085-11.335-11.352 0-6.268 5.068-11.337 11.335-11.337z" transform="matrix(.965926 -.258819 .258819 .965926 1.178319 97.991225)"/><path d="m263.701 148.793c-10.032 0-18.167 8.152-18.167 18.183s8.135 18.167 18.167 18.167c10.03 0 18.182-8.136 18.182-18.167s-8.151-18.183-18.182-18.183zm0 1.02c9.48 0 17.163 7.682 17.163 17.163 0 9.48-7.683 17.148-17.163 17.148s-17.148-7.668-17.148-17.148 7.668-17.163 17.148-17.163z" transform="matrix(.965926 -.258819 .258819 .965926 -34.228838 73.942037)"/><path d="m263.703 154.623c-6.818 0-12.356 5.538-12.355 12.356 0 6.818 5.537 12.355 12.355 12.355s12.355-5.537 12.355-12.355-5.537-12.356-12.355-12.356zm0 1.019c6.267 0 11.336 5.069 11.336 11.337 0 6.266-5.07 11.336-11.336 11.336-6.268 0-11.336-5.07-11.336-11.336 0-6.268 5.068-11.337 11.336-11.337z" transform="matrix(.965926 -.258819 .258819 .965926 -34.231743 73.940974)"/><path d="m308.239 136.859c-10.032 0-18.168 8.152-18.168 18.184 0 10.03 8.136 18.166 18.168 18.166 10.03 0 18.183-8.136 18.183-18.166 0-10.032-8.152-18.184-18.183-18.184zm0 1.02c9.479 0 17.164 7.683 17.164 17.164 0 9.479-7.685 17.147-17.164 17.147-9.481 0-17.148-7.668-17.148-17.147 0-9.481 7.667-17.164 17.148-17.164z" transform="matrix(.965926 -.258819 .258819 .965926 -29.622496 85.062679)"/><path d="m308.241 142.69c-6.818 0-12.356 5.537-12.356 12.355s5.538 12.356 12.356 12.356 12.355-5.538 12.355-12.356-5.537-12.355-12.355-12.355zm0 1.019c6.268 0 11.336 5.069 11.336 11.336s-5.07 11.336-11.336 11.336c-6.267 0-11.336-5.07-11.336-11.336 0-6.267 5.07-11.336 11.336-11.336z" transform="matrix(.965926 -.258819 .258819 .965926 -29.62568 85.061519)"/><path d="m352.777 124.925c-10.031 0-18.167 8.152-18.167 18.183s8.136 18.167 18.167 18.167c10.033 0 18.183-8.136 18.183-18.167s-8.152-18.183-18.183-18.183zm0 1.019c9.481 0 17.164 7.684 17.164 17.164s-7.683 17.148-17.164 17.148c-9.48 0-17.148-7.669-17.148-17.148 0-9.48 7.669-17.164 17.148-17.164z" transform="matrix(.965926 -.258819 .258819 .965926 -25.016153 96.183505)"/><path d="m352.78 130.755c-6.819 0-12.357 5.538-12.357 12.356.001 6.818 5.538 12.355 12.357 12.355 6.818 0 12.355-5.537 12.355-12.355s-5.537-12.356-12.355-12.356zm0 1.019c6.267 0 11.336 5.069 11.336 11.337 0 6.266-5.069 11.336-11.336 11.336-6.268 0-11.336-5.07-11.336-11.336 0-6.268 5.068-11.337 11.336-11.337z" transform="matrix(.965926 -.258819 .258819 .965926 -25.01908 96.182348)"/><path d="m325.196 148.753v1.019h10.827v-1.019z" transform="matrix(.965926 -.258819 .258819 .965926 -27.366727 90.653982)"/><path d="m280.689 160.685v1.02l10.778-.001v-1.019z" transform="matrix(.965926 -.258819 .258819 .965926 -31.972458 79.534997)"/><path d="m241.849 154.271v.51 26.923.511h.51 138.853.51v-.51-26.924-.509h-.51-5.62v1.019h5.11v25.904h-137.834v-25.904h5.191v-1.02h-5.7z" transform="matrix(.965926 -.258819 .258819 .965926 -32.920649 86.428719)"/><path d="m313.547 105.277v1.02h10.828v-1.02z" transform="matrix(.965926 -.258819 .258819 .965926 -16.511355 86.157739)"/><path d="m269.039 117.21v1.019h10.78v-1.019z" transform="matrix(.965926 -.258819 .258819 .965926 -21.117102 75.038611)"/><path d="m223.233 84.79v.509 26.925.509h.508 5.7v-1.018h-5.19v-25.906h137.834v25.906h-5.112v1.018h5.622.509v-.509-26.925-.509h-.509-138.854z" transform="matrix(.965926 -.258819 .258819 .965926 -15.571884 79.242815)"/></g></svg>

<?xml version="1.0" encoding="utf-8"?>
<svg xmlns="http://www.w3.org/2000/svg">
  <path id="circle3" d="M 155.177 123.269 C 128.044 123.269 106.043 145.271 106.043 172.401 C 106.043 199.533 128.044 221.536 155.177 221.536 C 182.309 221.536 204.312 199.534 204.312 172.401 C 204.312 145.269 182.31 123.266 155.177 123.266 L 155.177 123.269 Z M 155.177 124.287 C 181.758 124.287 203.293 145.821 203.293 172.403 C 203.293 198.985 181.759 220.52 155.177 220.52 C 128.593 220.52 107.059 198.988 107.059 172.403 C 107.059 145.822 128.593 124.288 155.175 124.288 L 155.177 124.287 Z" style="fill: rgb(30, 30, 30);" transform="matrix(0.965926, -0.258819, 0.258819, 0.965926, -39.333101, 46.037288)"/>
  <path id="circle5" d="M 155.179 151.675 C 143.737 151.675 134.448 160.963 134.448 172.405 C 134.448 183.846 143.737 193.135 155.179 193.135 C 166.62 193.135 175.909 183.847 175.909 172.405 C 175.909 160.963 166.621 151.675 155.179 151.675 Z M 155.179 152.694 C 166.069 152.694 174.889 161.514 174.889 172.405 C 174.889 183.295 166.069 192.116 155.179 192.116 C 144.288 192.116 135.467 183.295 135.467 172.405 C 135.467 161.515 144.288 152.694 155.179 152.694 Z" style="fill: rgb(30, 30, 30);" transform="matrix(0.965926, -0.258819, 0.258819, 0.965926, -39.334104, 46.037688)"/>
  <path id="polygon7" d="M 147.954 140.699 L 147.954 140.699 L 150.453 150.189 L 145.454 150.189 L 147.954 140.699 Z" style="fill: rgb(30, 30, 30);" transform="matrix(0.965926, -0.258819, 0.258819, 0.965926, -32.602292, 43.249077)"/>
  <path id="polygon9" d="M 127.837 154.824 L 136.323 159.776 L 132.805 163.311 L 127.837 154.824 L 127.837 154.824 Z" style="fill: rgb(30, 30, 30);" transform="matrix(0.965926, -0.258819, 0.258819, 0.965926, -36.66917, 39.604896)"/>
  <path id="polygon11" d="M 132.963 177.131 L 132.963 182.131 L 123.459 179.631 L 132.963 177.131 L 132.963 177.131 Z" style="fill: rgb(30, 30, 30);" transform="matrix(0.965926, -0.258819, 0.258819, 0.965926, -42.123224, 39.304209)"/>
  <path id="polygon13" d="M 142.567 191.26 L 146.086 194.794 L 137.6 199.745 L 142.567 191.26 L 142.567 191.26 Z" style="fill: rgb(30, 30, 30);" transform="matrix(0.965926, -0.258819, 0.258819, 0.965926, -45.766599, 43.37327)"/>
  <path id="polygon15" d="M 159.901 194.617 L 164.901 194.617 L 162.401 204.107 L 159.901 194.617 L 159.901 194.617 Z" style="fill: rgb(30, 30, 30);" transform="matrix(0.965926, -0.258819, 0.258819, 0.965926, -46.064983, 48.825541)"/>
  <path id="polygon17" d="M 177.565 181.5 L 182.501 189.97 L 174.031 185.033 L 177.565 181.5 Z" style="fill: rgb(30, 30, 30);" transform="matrix(0.965926, -0.258819, 0.258819, 0.965926, -41.997472, 52.467377)"/>
  <path id="polygon19" d="M 177.395 162.677 L 186.915 165.177 L 177.395 167.676 L 177.395 162.677 L 177.395 162.677 Z" style="fill: rgb(30, 30, 30);" transform="matrix(0.965926, -0.258819, 0.258819, 0.965926, -36.544031, 52.773412)"/>
  <path id="polygon21" d="M 172.743 145.08 L 167.806 153.551 L 164.271 150.016 L 172.743 145.08 Z" style="fill: rgb(30, 30, 30);" transform="matrix(0.965926, -0.258819, 0.258819, 0.965926, -32.903946, 48.700598)"/>
  <path id="circle25" d="M 251.989 105.086 C 241.958 105.086 233.823 113.221 233.823 123.252 C 233.823 133.283 241.958 141.435 251.989 141.435 C 262.019 141.435 270.172 133.283 270.172 123.252 C 270.172 113.221 262.021 105.086 251.989 105.086 L 251.989 105.086 Z M 251.989 106.105 C 261.469 106.105 269.152 113.771 269.152 123.252 C 269.152 132.732 261.469 140.417 251.989 140.417 C 242.509 140.417 234.841 132.732 234.841 123.252 C 234.841 113.771 242.509 106.105 251.989 106.105 Z" style="fill: rgb(30, 30, 30);" transform="matrix(0.965926, -0.258819, 0.258819, 0.965926, -23.315553, 69.421727)"/>
  <path id="circle27" d="M 251.987 110.899 C 245.169 110.899 239.632 116.437 239.632 123.255 C 239.632 130.073 245.169 135.61 251.987 135.61 C 258.806 135.61 264.343 130.073 264.343 123.255 C 264.343 116.437 258.806 110.899 251.987 110.899 Z M 251.987 111.919 C 258.254 111.919 263.323 116.987 263.323 123.254 C 263.323 129.521 258.253 134.59 251.987 134.59 C 245.72 134.59 240.651 129.521 240.651 123.254 C 240.651 116.987 245.72 111.919 251.987 111.919 Z" style="fill: rgb(30, 30, 30);" transform="matrix(0.965926, -0.258819, 0.258819, 0.965926, -23.314342, 69.418933)"/>
  <path id="circle31" d="M 296.525 93.152 C 286.493 93.152 278.358 101.288 278.358 111.319 C 278.358 121.35 286.494 129.485 296.525 129.485 C 306.555 129.485 314.708 121.35 314.708 111.319 C 314.708 101.287 306.557 93.152 296.525 93.152 Z M 296.525 94.171 C 306.005 94.171 313.689 101.839 313.689 111.319 C 313.689 120.799 306.005 128.466 296.525 128.466 C 287.045 128.466 279.377 120.798 279.377 111.319 C 279.378 101.838 287.045 94.171 296.525 94.171 Z" style="fill: rgb(30, 30, 30);" transform="matrix(0.965926, -0.258819, 0.258819, 0.965926, -18.707226, 80.54145)"/>
  <path id="circle33" d="M 296.526 98.965 C 289.707 98.965 284.17 104.502 284.17 111.321 C 284.17 118.139 289.707 123.676 296.526 123.676 C 303.343 123.676 308.88 118.139 308.88 111.321 C 308.88 104.502 303.343 98.965 296.526 98.965 Z M 296.526 99.984 C 302.793 99.984 307.861 105.053 307.861 111.32 C 307.861 117.587 302.791 122.656 296.526 122.656 C 290.258 122.656 285.189 117.587 285.189 111.32 C 285.189 105.053 290.259 99.984 296.526 99.984 Z" style="fill: rgb(30, 30, 30);" transform="matrix(0.965926, -0.258819, 0.258819, 0.965926, -18.708016, 80.539449)"/>
  <path id="circle37" d="M 341.063 81.218 C 331.033 81.218 322.897 89.354 322.897 99.385 C 322.897 109.415 331.032 117.551 341.063 117.551 C 351.095 117.551 359.247 109.415 359.247 99.385 C 359.247 89.354 351.095 81.218 341.063 81.218 Z M 341.063 82.237 C 350.544 82.237 358.228 89.905 358.228 99.385 C 358.228 108.865 350.544 116.532 341.063 116.532 C 331.583 116.532 323.915 108.864 323.915 99.385 C 323.915 89.904 331.584 82.237 341.063 82.237 Z" style="fill: rgb(30, 30, 30);" transform="matrix(0.965926, -0.258819, 0.258819, 0.965926, -14.100855, 91.662353)"/>
  <path id="circle39" d="M 341.064 87.031 C 334.245 87.031 328.708 92.568 328.708 99.387 C 328.708 106.205 334.245 111.742 341.064 111.742 C 347.882 111.742 353.419 106.205 353.419 99.387 C 353.419 92.568 347.882 87.031 341.064 87.031 Z M 341.064 88.05 C 347.331 88.05 352.4 93.119 352.4 99.386 C 352.4 105.653 347.331 110.723 341.064 110.723 C 334.797 110.723 329.727 105.653 329.727 99.386 C 329.727 93.119 334.797 88.05 341.064 88.05 Z" style="fill: rgb(30, 30, 30);" transform="matrix(0.965926, -0.258819, 0.258819, 0.965926, -14.101661, 91.660214)"/>
  <path id="circle43" d="M 372.748 26.347 C 362.716 26.347 354.581 34.483 354.581 44.513 C 354.581 54.544 362.717 62.696 372.748 62.696 C 382.78 62.696 390.915 54.544 390.915 44.513 C 390.91 34.483 382.773 26.347 372.746 26.347 L 372.748 26.347 Z M 372.748 27.365 C 382.228 27.365 389.896 35.034 389.896 44.513 C 389.896 53.993 382.228 61.677 372.748 61.677 C 363.268 61.677 355.6 53.993 355.6 44.513 C 355.6 35.033 363.268 27.365 372.75 27.365 L 372.748 27.365 Z" style="fill: rgb(30, 30, 30);" transform="matrix(0.965926, -0.258819, 0.258819, 0.965926, 1.17806, 97.991259)"/>
  <path id="circle45" d="M 372.747 32.157 C 365.93 32.157 360.393 37.695 360.393 44.513 C 360.393 51.331 365.93 56.884 372.747 56.884 C 379.566 56.884 385.103 51.331 385.103 44.513 C 385.103 37.695 379.566 32.157 372.747 32.157 Z M 372.747 33.176 C 379.016 33.176 384.084 38.245 384.084 44.513 C 384.084 50.78 379.015 55.865 372.747 55.865 C 366.48 55.865 361.412 50.78 361.412 44.513 C 361.412 38.245 366.48 33.176 372.747 33.176 Z" style="fill: rgb(30, 30, 30);" transform="matrix(0.965926, -0.258819, 0.258819, 0.965926, 1.178319, 97.991225)"/>
  <path id="circle49" d="M 263.701 148.793 C 253.669 148.793 245.534 156.945 245.534 166.976 C 245.534 177.007 253.669 185.143 263.701 185.143 C 273.731 185.143 281.883 177.007 281.883 166.976 C 281.883 156.945 273.732 148.793 263.701 148.793 L 263.701 148.793 Z M 263.701 149.813 C 273.181 149.813 280.864 157.495 280.864 166.976 C 280.864 176.456 273.181 184.124 263.701 184.124 C 254.221 184.124 246.553 176.456 246.553 166.976 C 246.553 157.496 254.221 149.813 263.701 149.813 Z" style="fill: rgb(30, 30, 30);" transform="matrix(0.965926, -0.258819, 0.258819, 0.965926, -34.228838, 73.942037)"/>
  <path id="circle51" d="M 263.703 154.623 C 256.885 154.623 251.347 160.161 251.348 166.979 C 251.348 173.797 256.885 179.334 263.703 179.334 C 270.521 179.334 276.058 173.797 276.058 166.979 C 276.058 160.161 270.521 154.623 263.703 154.623 Z M 263.703 155.642 C 269.97 155.642 275.039 160.711 275.039 166.979 C 275.039 173.245 269.969 178.315 263.703 178.315 C 257.435 178.315 252.367 173.245 252.367 166.979 C 252.367 160.711 257.435 155.642 263.703 155.642 Z" style="fill: rgb(30, 30, 30);" transform="matrix(0.965926, -0.258819, 0.258819, 0.965926, -34.231743, 73.940974)"/>
  <path id="circle55" d="M 308.239 136.859 C 298.207 136.859 290.071 145.011 290.071 155.043 C 290.071 165.073 298.207 173.209 308.239 173.209 C 318.269 173.209 326.422 165.073 326.422 155.043 C 326.422 145.011 318.27 136.859 308.239 136.859 L 308.239 136.859 Z M 308.239 137.879 C 317.718 137.879 325.403 145.562 325.403 155.043 C 325.403 164.522 317.718 172.19 308.239 172.19 C 298.758 172.19 291.091 164.522 291.091 155.043 C 291.091 145.562 298.758 137.879 308.239 137.879 Z" style="fill: rgb(30, 30, 30);" transform="matrix(0.965926, -0.258819, 0.258819, 0.965926, -29.622496, 85.062679)"/>
  <path id="circle57" d="M 308.241 142.69 C 301.423 142.69 295.885 148.227 295.885 155.045 C 295.885 161.863 301.423 167.401 308.241 167.401 C 315.059 167.401 320.596 161.863 320.596 155.045 C 320.596 148.227 315.059 142.69 308.241 142.69 Z M 308.241 143.709 C 314.509 143.709 319.577 148.778 319.577 155.045 C 319.577 161.312 314.507 166.381 308.241 166.381 C 301.974 166.381 296.905 161.311 296.905 155.045 C 296.905 148.778 301.975 143.709 308.241 143.709 Z" style="fill: rgb(30, 30, 30);" transform="matrix(0.965926, -0.258819, 0.258819, 0.965926, -29.62568, 85.061519)"/>
  <path id="circle59" d="M 352.777 124.925 C 342.746 124.925 334.61 133.077 334.61 143.108 C 334.61 153.139 342.746 161.275 352.777 161.275 C 362.81 161.275 370.96 153.139 370.96 143.108 C 370.96 133.077 362.808 124.925 352.777 124.925 L 352.777 124.925 Z M 352.777 125.944 C 362.258 125.944 369.941 133.628 369.941 143.108 C 369.941 152.588 362.258 160.256 352.777 160.256 C 343.297 160.256 335.629 152.587 335.629 143.108 C 335.629 133.628 343.298 125.944 352.777 125.944 Z" style="fill: rgb(30, 30, 30);" transform="matrix(0.965926, -0.258819, 0.258819, 0.965926, -25.016153, 96.183505)"/>
  <path id="circle61" d="M 352.78 130.755 C 345.961 130.755 340.423 136.293 340.423 143.111 C 340.424 149.929 345.961 155.466 352.78 155.466 C 359.598 155.466 365.135 149.929 365.135 143.111 C 365.135 136.293 359.598 130.755 352.78 130.755 Z M 352.78 131.774 C 359.047 131.774 364.116 136.843 364.116 143.111 C 364.116 149.377 359.047 154.447 352.78 154.447 C 346.512 154.447 341.444 149.377 341.444 143.111 C 341.444 136.843 346.512 131.774 352.78 131.774 Z" style="fill: rgb(30, 30, 30);" transform="matrix(0.965926, -0.258819, 0.258819, 0.965926, -25.01908, 96.182348)"/>
  <path id="line65" d="M 325.196 148.753 L 325.196 149.772 L 336.023 149.772 L 336.023 148.753 L 325.196 148.753 Z" style="fill: rgb(30, 30, 30);" transform="matrix(0.965926, -0.258819, 0.258819, 0.965926, -27.366727, 90.653982)"/>
  <path id="line67" d="M 280.689 160.685 L 280.689 161.705 L 291.467 161.704 L 291.467 160.685 L 280.689 160.685 Z" style="fill: rgb(30, 30, 30);" transform="matrix(0.965926, -0.258819, 0.258819, 0.965926, -31.972458, 79.534997)"/>
  <path id="polyline69" d="M 241.849 154.271 L 241.849 154.781 L 241.849 181.704 L 241.849 182.215 L 242.359 182.215 L 381.212 182.215 L 381.722 182.215 L 381.722 181.705 L 381.722 154.781 L 381.722 154.272 L 381.212 154.272 L 375.592 154.272 L 375.592 155.291 L 380.702 155.291 L 380.702 181.195 L 242.868 181.195 L 242.868 155.291 L 248.059 155.291 L 248.059 154.271 L 242.359 154.271 L 241.849 154.271 Z" style="fill: rgb(30, 30, 30);" transform="matrix(0.965926, -0.258819, 0.258819, 0.965926, -32.920649, 86.428719)"/>
  <path id="line73" d="M 313.547 105.277 L 313.547 106.297 L 324.375 106.297 L 324.375 105.277 L 313.547 105.277 Z" style="fill: rgb(30, 30, 30);" transform="matrix(0.965926, -0.258819, 0.258819, 0.965926, -16.511355, 86.157739)"/>
  <path id="line75" d="M 269.039 117.21 L 269.039 118.229 L 279.819 118.229 L 279.819 117.21 L 269.039 117.21 Z" style="fill: rgb(30, 30, 30);" transform="matrix(0.965926, -0.258819, 0.258819, 0.965926, -21.117102, 75.038611)"/>
  <path id="polyline77" d="M 223.233 84.79 L 223.233 85.299 L 223.233 112.224 L 223.233 112.733 L 223.741 112.733 L 229.441 112.733 L 229.441 111.715 L 224.251 111.715 L 224.251 85.809 L 362.085 85.809 L 362.085 111.715 L 356.973 111.715 L 356.973 112.733 L 362.595 112.733 L 363.104 112.733 L 363.104 112.224 L 363.104 85.299 L 363.104 84.79 L 362.595 84.79 L 223.741 84.79 L 223.233 84.79 Z" style="fill: rgb(30, 30, 30);" transform="matrix(0.965926, -0.258819, 0.258819, 0.965926, -15.571884, 79.242815)"/>
</svg>
